Origami/48x48/apps/manaplus.svg

<svg width="48" height="48" version="1.1" viewBox="0 0 48 48" xmlns="http://www.w3.org/2000/svg">
 <path d="m24 4a20 20 0 0 0 -20 20 20 20 0 0 0 20 20 20 20 0 0 0 20 -20 20 20 0 0 0 -20 -20z" style="fill:#d66829"/>
 <path d="m4.0215 24.418a20 20 0 0 0 -0.0215 0.582 20 20 0 0 0 20 20 20 20 0 0 0 20 -20 20 20 0 0 0 -0.021 -0.418 20 20 0 0 1 -19.979 19.418 20 20 0 0 1 -19.978 -19.582z" opacity=".2"/>
 <path d="m24 4a20 20 0 0 0 -20 20 20 20 0 0 0 0.0215 0.418 20 20 0 0 1 19.978 -19.418 20 20 0 0 1 19.979 19.582 20 20 0 0 0 0.021 -0.582 20 20 0 0 0 -20 -20z" fill="#ffffff" opacity=".2"/>
 <path d="m21.00025 33.971515v-10s0-2 4-2 4 2 4 2v10m-16.0002 0v-10s0-2 4-2 4 2 4 2v10" style="fill:none;opacity:.2;stroke-linecap:round;stroke-linejoin:round;stroke-width:4;stroke:#000000"/>
 <path d="m21.00025 32.971515v-10s0-2 4-2 4 2 4 2v10m-16.0002 0v-10s0-2 4-2 4 2 4 2v10" style="fill:none;stroke-linecap:round;stroke-linejoin:round;stroke-width:4;stroke:#f8bf94"/>
 <path d="m34 13c-0.554 0-1 0.446-1 1v3h-3c-0.554 0-1 0.446-1 1s0.446 1 1 1h3v3c0 0.554 0.446 1 1 1s1-0.446 1-1v-3h3c0.554 0 1-0.446 1-1s-0.446-1-1-1h-3v-3c0-0.554-0.446-1-1-1z" style="opacity:.2"/>
 <rect x="33" y="12" width="2" height="10" rx="1" ry="1" style="fill:#ffffff"/>
 <rect transform="rotate(90)" x="16" y="-39" width="2" height="10" rx="1" ry="1" style="fill:#ffffff"/>
 <path d="m17 18.970703c-2.333333 0-3.942658 0.614533-4.914062 1.585938-0.485704 0.485702-0.773095 1.030221-0.919922 1.470703-0.146828 0.440482-0.166016 0.943359-0.166016 0.943359v1s0.019188-0.502877 0.166016-0.943359c0.146827-0.440482 0.434218-0.985001 0.919922-1.470703 0.971404-0.971405 2.580729-1.585938 4.914062-1.585938 1.785227 0 3.023807 0.438945 4 1.042969 0.97624-0.604272 2.214366-1.042969 4-1.042969 2.333333 0 3.942659 0.614533 4.914062 1.585938 0.485703 0.485702 0.775048 1.030221 0.921876 1.470703 0.146831 0.440482 0.164062 0.943359 0.164062 0.943359v-1s-0.017231-0.502877-0.164062-0.943359c-0.146828-0.440482-0.436173-0.985001-0.921876-1.470703-0.971403-0.971405-2.580729-1.585938-4.914062-1.585938-1.785634 0-3.02376 0.438697-4 1.042969-0.976193-0.604024-2.214773-1.042969-4-1.042969z" style="fill:#ffffff;opacity:.1"/>
</svg>

<svg xmlns="http://www.w3.org/2000/svg" width="48" height="48" version="1.1" viewBox="0 0 48 48">
 <path style="fill:#d66829" d="m24 4a20 20 0 0 0 -20 20 20 20 0 0 0 20 20 20 20 0 0 0 20 -20 20 20 0 0 0 -20 -20z"/>
 <path opacity=".2" d="m4.0215 24.418a20 20 0 0 0 -0.0215 0.582 20 20 0 0 0 20 20 20 20 0 0 0 20 -20 20 20 0 0 0 -0.021 -0.418 20 20 0 0 1 -19.979 19.418 20 20 0 0 1 -19.978 -19.582z"/>
 <path fill="#ffffff" opacity=".2" d="m24 4a20 20 0 0 0 -20 20 20 20 0 0 0 0.0215 0.418 20 20 0 0 1 19.978 -19.418 20 20 0 0 1 19.979 19.582 20 20 0 0 0 0.021 -0.582 20 20 0 0 0 -20 -20z"/>
 <path style="opacity:0.2;fill:none;stroke:#000000;stroke-width:4;stroke-linecap:round;stroke-linejoin:round" d="m 21.00025,33.971515 v -10 c 0,0 0,-2 4,-2 4,0 4,2 4,2 v 10 m -16.0002,0 v -10 c 0,0 0,-2 4,-2 4,0 4,2 4,2 v 10"/>
 <path style="fill:none;stroke:#f8bf94;stroke-width:4;stroke-linecap:round;stroke-linejoin:round" d="m 21.00025,32.971515 v -10 c 0,0 0,-2 4,-2 4,0 4,2 4,2 v 10 m -16.0002,0 v -10 c 0,0 0,-2 4,-2 4,0 4,2 4,2 v 10"/>
 <path style="opacity:0.2" d="m 34,13 c -0.554,0 -1,0.446 -1,1 v 3 h -3 c -0.554,0 -1,0.446 -1,1 0,0.554 0.446,1 1,1 h 3 v 3 c 0,0.554 0.446,1 1,1 0.554,0 1,-0.446 1,-1 v -3 h 3 c 0.554,0 1,-0.446 1,-1 0,-0.554 -0.446,-1 -1,-1 h -3 v -3 c 0,-0.554 -0.446,-1 -1,-1 z"/>
 <rect style="fill:#ffffff" width="2" height="10" x="33" y="12" rx="1" ry="1"/>
 <rect style="fill:#ffffff" width="2" height="10" x="16" y="-39" rx="1" ry="1" transform="rotate(90)"/>
 <path style="opacity:0.1;fill:#ffffff" d="M 17 18.970703 C 14.666667 18.970703 13.057342 19.585236 12.085938 20.556641 C 11.600234 21.042343 11.312843 21.586862 11.166016 22.027344 C 11.019188 22.467826 11 22.970703 11 22.970703 L 11 23.970703 C 11 23.970703 11.019188 23.467826 11.166016 23.027344 C 11.312843 22.586862 11.600234 22.042343 12.085938 21.556641 C 13.057342 20.585236 14.666667 19.970703 17 19.970703 C 18.785227 19.970703 20.023807 20.409648 21 21.013672 C 21.97624 20.4094 23.214366 19.970703 25 19.970703 C 27.333333 19.970703 28.942659 20.585236 29.914062 21.556641 C 30.399765 22.042343 30.68911 22.586862 30.835938 23.027344 C 30.982769 23.467826 31 23.970703 31 23.970703 L 31 22.970703 C 31 22.970703 30.982769 22.467826 30.835938 22.027344 C 30.68911 21.586862 30.399765 21.042343 29.914062 20.556641 C 28.942659 19.585236 27.333333 18.970703 25 18.970703 C 23.214366 18.970703 21.97624 19.4094 21 20.013672 C 20.023807 19.409648 18.785227 18.970703 17 18.970703 z"/>
</svg>
